logos/etcd.svg

<?xml version="1.0" encoding="UTF-8" standalone="no"?>
<svg width="256px" height="248px" viewBox="0 0 256 248" version="1.1" xmlns="http://www.w3.org/2000/svg" xmlns:xlink="http://www.w3.org/1999/xlink" preserveAspectRatio="xMidYMid">
    <g>
        <path d="M252.386416,128.063547 C251.184178,128.164306 249.976215,128.21125 248.692682,128.21125 C241.246821,128.21125 234.023088,126.465143 227.505812,123.267189 C229.675566,110.820018 230.598427,98.2801018 230.356834,85.7859855 C223.291109,75.5658167 215.215504,65.9227222 206.100249,57.0387552 C210.05504,49.6238086 215.901352,43.2439318 223.19951,38.7200816 L226.333344,36.7827608 L223.891083,34.029063 C211.309948,19.8621183 196.294566,8.90915678 179.270875,1.47703537 L175.875983,0 L175.013807,3.58839447 C172.983742,11.9513917 168.740414,19.4957219 162.914712,25.550422 C151.717868,19.5987709 140.020663,14.7886736 127.958208,11.1453196 C115.924377,14.7806586 104.247783,19.5770161 93.0555185,25.5195073 C87.253861,19.4728222 83.0208379,11.9468117 80.9987879,3.60785927 L80.1308865,0.0206097959 L76.74859,1.49077524 C59.9390115,8.81526771 44.5102892,20.0647813 32.1352518,34.0210481 L29.686121,36.7804708 L32.81652,38.7177916 C40.091778,43.224467 45.9220603,49.5665592 49.8699812,56.9414311 C40.7822062,65.7910485 32.715761,75.4032283 25.6557609,85.5764526 C25.3809637,98.0648439 26.25688,110.696359 28.4369384,123.315279 C21.9517226,126.483463 14.7680638,128.210105 7.37143701,128.210105 C6.07301986,128.210105 4.85818689,128.163161 3.67770358,128.064692 L0,127.78417 L0.344641587,131.456148 C2.14685374,150.033589 7.91530662,167.703054 17.4988617,183.979068 L19.3697732,187.155267 L22.1784304,184.7714 C28.6876909,179.250265 36.552618,175.594316 44.9156152,174.120716 C50.4287356,185.393129 56.9631859,195.984274 64.3758425,205.817437 C76.2035754,209.954281 88.5270884,213.042315 101.253637,214.880022 C102.474195,223.296834 101.5021,232.002183 98.1816328,240.051453 L96.7813116,243.462374 L100.382301,244.254706 C109.602895,246.282481 118.904783,247.315261 128.013167,247.315261 L155.636019,244.254706 L159.240443,243.462374 L157.836687,240.044583 C154.52538,231.995313 153.553284,223.279659 154.773842,214.861702 C167.450012,213.022851 179.727725,209.941686 191.511949,205.817437 C198.931475,195.976259 205.47165,185.378244 210.993931,174.090946 C219.383263,175.555387 227.292844,179.213625 233.842179,184.750791 L236.650837,187.131222 L238.512588,183.963038 C248.113318,167.666415 253.880626,149.998095 255.655358,131.450423 L256,127.785315 L252.386416,128.063547 L252.386416,128.063547 Z M167.490086,172.959697 C154.422331,176.513742 141.150767,178.307939 127.958208,178.307939 C114.730154,178.307939 101.47462,176.514887 88.3954147,172.959697 C81.2197707,161.809798 75.5463519,149.865276 71.4633223,137.289866 C67.3974676,124.772849 65.0181812,111.659294 64.327753,98.156443 C72.7743344,87.7130014 82.3796442,78.564542 92.9925442,70.8633483 C103.777192,63.019031 115.509891,56.6460241 127.958208,51.8519565 C140.385915,56.6471691 152.096859,63.011016 162.856317,70.8221287 C173.510437,78.564542 183.158111,87.7839907 191.645912,98.2926967 C190.922279,111.718834 188.514368,124.75682 184.441644,137.253226 C180.368919,149.826346 174.67718,161.808653 167.490086,172.959697 L167.490086,172.959697 Z M138.750871,109.962421 C138.750871,119.194465 146.232227,126.662081 155.451676,126.662081 C164.668834,126.662081 172.142175,119.19561 172.142175,109.962421 C172.142175,100.765872 164.668834,93.2696314 155.451676,93.2696314 C146.232227,93.2696314 138.750871,100.765872 138.750871,109.962421 L138.750871,109.962421 Z M117.172415,109.962421 C117.172415,119.194465 109.692204,126.662081 100.472755,126.662081 C91.2464364,126.662081 83.7868353,119.19561 83.7868353,109.962421 C83.7868353,100.769307 91.2475814,93.2730664 100.472755,93.2730664 C109.692204,93.2730664 117.172415,100.769307 117.172415,109.962421 L117.172415,109.962421 Z" fill="#419EDA"></path>
    </g>
</svg>

<svg preserveAspectRatio="xMidYMid" viewBox="0 0 256 248" xmlns="http://www.w3.org/2000/svg">
  <path fill="#419EDA" d="M252.386 128.064c-1.202.1-2.41.147-3.693.147-7.446 0-14.67-1.746-21.187-4.944 2.17-12.447 3.092-24.987 2.85-37.481-7.065-10.22-15.14-19.863-24.256-28.747 3.955-7.415 9.801-13.795 17.1-18.319l3.133-1.937-2.442-2.754c-12.581-14.167-27.596-25.12-44.62-32.552L175.876 0l-.862 3.588c-2.03 8.363-6.274 15.908-12.1 21.962a193.842 193.842 0 0 0-34.956-14.405A194.012 194.012 0 0 0 93.056 25.52C87.254 19.473 83.02 11.947 80.999 3.608L80.13.02l-3.382 1.47C59.939 8.815 44.51 20.065 32.135 34.02l-2.449 2.76 3.13 1.937c7.276 4.506 13.106 10.849 17.054 18.223-9.088 8.85-17.154 18.462-24.214 28.635-.275 12.489.6 25.12 2.78 37.74-6.484 3.167-13.668 4.894-21.065 4.894-1.298 0-2.513-.047-3.693-.145L0 127.785l.345 3.671c1.802 18.578 7.57 36.247 17.154 52.523l1.87 3.176 2.81-2.384a48.04 48.04 0 0 1 22.737-10.65 194.86 194.86 0 0 0 19.46 31.696c11.828 4.137 24.151 7.225 36.878 9.063 1.22 8.417.248 17.122-3.072 25.171l-1.4 3.411 3.6.793c9.22 2.027 18.523 3.06 27.631 3.06l27.623-3.06 3.604-.793-1.403-3.417c-3.312-8.05-4.284-16.765-3.063-25.183 12.676-1.84 24.954-4.92 36.738-9.045a195.108 195.108 0 0 0 19.482-31.726 48.254 48.254 0 0 1 22.848 10.66l2.809 2.38 1.862-3.168c9.6-16.297 15.368-33.965 17.142-52.513l.345-3.665-3.614.279ZM167.49 172.96c-13.068 3.554-26.34 5.348-39.532 5.348-13.228 0-26.483-1.793-39.563-5.348a153.255 153.255 0 0 1-16.932-35.67c-4.066-12.517-6.445-25.63-7.135-39.134 8.446-10.443 18.052-19.591 28.665-27.293a152.62 152.62 0 0 1 34.965-19.011 153.242 153.242 0 0 1 34.898 18.97c10.654 7.743 20.302 16.962 28.79 27.47-.724 13.427-3.132 26.465-7.204 38.961a152.767 152.767 0 0 1-16.952 35.707Zm-28.74-62.998c0 9.232 7.482 16.7 16.702 16.7 9.217 0 16.69-7.466 16.69-16.7 0-9.196-7.473-16.692-16.69-16.692-9.22 0-16.701 7.496-16.701 16.692Zm-21.578 0c0 9.232-7.48 16.7-16.7 16.7-9.226 0-16.685-7.466-16.685-16.7 0-9.193 7.46-16.689 16.686-16.689 9.22 0 16.7 7.496 16.7 16.69Z"/>
</svg>
